X: 4
T: Missa Fors seulement / Sanctus
N: Derived from Pip1004d-Missa_Fors_seulement-Sanctus.krn
C: Matthaeus Pipelare
%%abc-version 2.0
%%abcx-abcm2ps-target-version 5.9.1 (29 Sep 2008)
%%abc-creator hum2abc beta
%%abcx-conversion-date 2019/02/17 07:30:01
%%abc-edited-by Jesse Rodin
%%abc-edited-by Jesse Rodin 8/26/2013
%%abcx-initial-encoding-date 2013/08/26/
%%humdrum-veritas 2458037872
%%humdrum-veritas-data 3165077721
%%linebreak <none>
%%barnumbers 0
L: 1/4
M: 2/1
Q: 1/2=120
V: 1 clef=treble-8
V: 2 clef=treble-8
V: 3 clef=bass
V: 4 clef=bass
V: 5 clef=bass
K: C
[V:1] z8 | 
[V:2] z8 | 
[V:3] D,8 | 
[V:4] z8 | 
[V:5] z8 | 
[V:1] z8 | 
[V:2] z8 | 
[V:3] F,4E,4 | 
[V:4] z8 | 
[V:5] z8 | 
[V:1] d8 | 
[V:2] z8 | 
[V:3] F,4G,4 | 
[V:4] z8 | 
[V:5] z8 | 
[V:1] f4e4 | 
[V:2] z8 | 
[V:3] A,6G,2 | 
[V:4] z8 | 
[V:5] z8 | 
[V:1] f4g4 | 
[V:2] z8 | 
[V:3] F,2E,D,E,4 | 
[V:4] z8 | 
[V:5] z8 | 
[V:1] a6g2 | 
[V:2] z8 | 
[V:3] D,2F,4E,2 | 
[V:4] z8 | 
[V:5] z8 | 
[V:1] f2edf2e2- | 
[V:2] z8 | 
[V:3] D,2C,B,,A,,4 | 
[V:4] z8 | 
[V:5] z8 | 
[V:1] e2dcB4 | 
[V:2] z8 | 
[V:3] z2A,4G,2 | 
[V:4] z8 | 
[V:5] z8 | 
[V:1] A4z2a2- | 
[V:2] z8 | 
[V:3] F,2E,D,C,2D,2- | 
[V:4] z8 | 
[V:5] z8 | 
[V:1] a2g2f2ed | 
[V:2] z8 | 
[V:3] D,2E,2F,2G,2 | 
[V:4] z8 | 
[V:5] z8 | 
[V:1] c2d2e2f2- | 
[V:2] z8 | 
[V:3] E,2F,2G,2A,2 | 
[V:4] z8 | 
[V:5] z8 | 
[V:1] fed4^c2 | 
[V:2] z8 | 
[V:3] D,4E,4 | 
[V:4] z8 | 
[V:5] z8 | 
[V:1] d8- | 
[V:2] A8- | 
[V:3] D,8- | 
[V:4] z4z2D,2- | 
[V:5] z8 | 
[V:1] d8 | 
[V:2] A8 | 
[V:3] D,8- | 
[V:4] D,2E,2F,2G,2 | 
[V:5] z8 | 
[V:1] z8 | 
[V:2] A8 | 
[V:3] D,8 | 
[V:4] A,4D,2A,2- | 
[V:5] z4z2D,,2- | 
[V:1] z8 | 
[V:2] A8 | 
[V:3] z8 | 
[V:4] A,2G,2F,2E,D, | 
[V:5] D,,2E,,2F,,2G,,2 | 
[V:1] z8 | 
[V:2] A8 | 
[V:3] z8 | 
[V:4] C,4z2C,2- | 
[V:5] A,,4D,,2A,,2- | 
[V:1] z8 | 
[V:2] A8 | 
[V:3] z8 | 
[V:4] C,2D,2E,2F,2 | 
[V:5] A,,2B,,2C,2D,2 | 
[V:1] z8 | 
[V:2] G8 | 
[V:3] z8 | 
[V:4] G,4C,2G,2- | 
[V:5] E,4z2E,2- | 
[V:1] z8 | 
[V:2] G8 | 
[V:3] z8 | 
[V:4] G,2F,2E,2D,2 | 
[V:5] E,2D,2C,2B,,2 | 
[V:1] z8 | 
[V:2] A8- | 
[V:3] z8 | 
[V:4] F,2E,2D,2F,2- | 
[V:5] A,,3G,,F,,E,,D,,2- | 
[V:1] z8 | 
[V:2] A8 | 
[V:3] z8 | 
[V:4] F,2E,D,E,4 | 
[V:5] D,,2D,4^C,2 | 
[V:1] z4f4- | 
[V:2] z8 | 
[V:3] z4A,4- | 
[V:4] D,8 | 
[V:5] D,8- | 
[V:1] f4f4 | 
[V:2] z8 | 
[V:3] A,4F,4 | 
[V:4] z8 | 
[V:5] D,8 | 
[V:1] e4c4 | 
[V:2] z8 | 
[V:3] G,4A,4 | 
[V:4] z8 | 
[V:5] z8 | 
[V:1] d4e4 | 
[V:2] z8 | 
[V:3] F,2G,2G,F,E,D, | 
[V:4] z8 | 
[V:5] z8 | 
[V:1] A4B2c2- | 
[V:2] z8 | 
[V:3] C,2D,4C,2 | 
[V:4] z8 | 
[V:5] z8 | 
[V:1] cBA4^G2 | 
[V:2] z8 | 
[V:3] A,,4B,,4 | 
[V:4] z8 | 
[V:5] z8 | 
[V:1] A8- | 
[V:2] c8- | 
[V:3] A,,8 | 
[V:4] z4E,4- | 
[V:5] z4A,,4- | 
[V:1] A8 | 
[V:2] c4c4 | 
[V:3] z4A,4- | 
[V:4] E,4E,4 | 
[V:5] A,,4A,,4 | 
[V:1] z8 | 
[V:2] c8 | 
[V:3] A,4A,4 | 
[V:4] F,8 | 
[V:5] F,,8 | 
[V:1] z4e4 | 
[V:2] c8 | 
[V:3] z4A,4- | 
[V:4] E,8 | 
[V:5] A,,8 | 
[V:1] f6ed | 
[V:2] d8 | 
[V:3] A,8- | 
[V:4] D,6C,B,, | 
[V:5] D,,8 | 
[V:1] e4d4 | 
[V:2] c4B4- | 
[V:3] A,4F,4 | 
[V:4] A,,4D,4 | 
[V:5] z8 | 
[V:1] g4e4 | 
[V:2] B4A4- | 
[V:3] G,2E,4A,2- | 
[V:4] E,4C,4 | 
[V:5] z8 | 
[V:1] f2d4cB | 
[V:2] A4^G4 | 
[V:3] A,G,F,E,D,4 | 
[V:4] D,4B,,4 | 
[V:5] z8 | 
[V:1] c8- | 
[V:2] A8- | 
[V:3] E,8- | 
[V:4] A,,8 | 
[V:5] z4A,,4- | 
[V:1] c8 | 
[V:2] A8 | 
[V:3] E,4F,4 | 
[V:4] z8 | 
[V:5] A,,4F,,4 | 
[V:1] z8 | 
[V:2] z8 | 
[V:3] D,2E,3D,C,B,, | 
[V:4] z8 | 
[V:5] G,,4E,,2F,,2- | 
[V:1] z8 | 
[V:2] z8 | 
[V:3] A,,2D,4^C,2 | 
[V:4] z8 | 
[V:5] F,,2E,,D,,E,,4 | 
[V:1] z2A3Bcd | 
[V:2] z8 | 
[V:3] D,8 | 
[V:4] z4A,4- | 
[V:5] D,,8 | 
[V:1] e4f4 | 
[V:2] z8 | 
[V:3] z8 | 
[V:4] A,4F,4 | 
[V:5] z8 | 
[V:1] d2e3dcB | 
[V:2] z8 | 
[V:3] z8 | 
[V:4] G,4E,2F,2- | 
[V:5] z8 | 
[V:1] A2d4^c2 | 
[V:2] z8 | 
[V:3] z8 | 
[V:4] F,2E,D,E,4 | 
[V:5] z8 | 
[V:1] d8 | 
[V:2] A8- | 
[V:3] z4F,4- | 
[V:4] D,8 | 
[V:5] z4D,,4- | 
[V:1] z4d4- | 
[V:2] A8 | 
[V:3] F,4F,4 | 
[V:4] z4D,4- | 
[V:5] D,,4D,,4 | 
[V:1] d4d4 | 
[V:2] A8- | 
[V:3] F,8 | 
[V:4] D,4D,4 | 
[V:5] D,,8 | 
[V:1] e4e2c2- | 
[V:2] A8 | 
[V:3] E,8 | 
[V:4] C,8 | 
[V:5] A,,8 | 
[V:1] c2A2A4 | 
[V:2] A8 | 
[V:3] F,8- | 
[V:4] C,8- | 
[V:5] F,,8 | 
[V:1] z4a4 | 
[V:2] A8 | 
[V:3] F,8 | 
[V:4] C,8 | 
[V:5] A,,8 | 
[V:1] d4d2g2- | 
[V:2] B8 | 
[V:3] G,6F,E, | 
[V:4] B,,8- | 
[V:5] G,,8- | 
[V:1] g2feg4 | 
[V:2] G8 | 
[V:3] D,8 | 
[V:4] B,,8 | 
[V:5] G,,8 | 
[V:1] f4d2f2- | 
[V:2] A8- | 
[V:3] z4D,4- | 
[V:4] A,,8 | 
[V:5] D,,8- | 
[V:1] f2edf4 | 
[V:2] A8 | 
[V:3] D,4D,4 | 
[V:4] z8 | 
[V:5] D,,8 | 
[V:1] e4f2a2- | 
[V:2] z8 | 
[V:3] C,4D,4 | 
[V:4] A,8- | 
[V:5] z4D,4- | 
[V:1] a2gfe4 | 
[V:2] z8 | 
[V:3] A,,8 | 
[V:4] A,8 | 
[V:5] D,4C,4 | 
[V:1] d4z4 | 
[V:2] z8 | 
[V:3] A,4G,4 | 
[V:4] F,4G,2E,2- | 
[V:5] D,4E,4 | 
[V:1] z2f4ed | 
[V:2] z8 | 
[V:3] E,2F,2D,4 | 
[V:4] E,2A,4^G,2 | 
[V:5] C,2D,2B,,4 | 
[V:1] c2e4dc | 
[V:2] z8 | 
[V:3] E,6F,2 | 
[V:4] A,8 | 
[V:5] A,,8 | 
[V:1] B3cd2c2- | 
[V:2] z8 | 
[V:3] G,3A,B,2A,2- | 
[V:4] z8 | 
[V:5] z8 | 
[V:1] c2BAB4 | 
[V:2] z8 | 
[V:3] A,2G,F,G,4 | 
[V:4] z4E,4 | 
[V:5] z8 | 
[V:1] A8 | 
[V:2] A8 | 
[V:3] A,2G,F,E,2F,2- | 
[V:4] F,2E,D,C,2D,2- | 
[V:5] z8 | 
[V:1] z8 | 
[V:2] A6B2 | 
[V:3] F,2E,2F,2E,D, | 
[V:4] D,2C,2D,2C,B,, | 
[V:5] z8 | 
[V:1] z8 | 
[V:2] c4B4- | 
[V:3] C,4F,4- | 
[V:4] A,,4D,4- | 
[V:5] z8 | 
[V:1] z4A4 | 
[V:2] B4A4- | 
[V:3] F,4E,4- | 
[V:4] D,4C,4 | 
[V:5] z8 | 
[V:1] B4d4 | 
[V:2] A4^G4 | 
[V:3] E,4D,4 | 
[V:4] B,,8 | 
[V:5] z8 | 
[V:1] c6d2 | 
[V:2] A8- | 
[V:3] E,8 | 
[V:4] A,,8 | 
[V:5] z4A,,4- | 
[V:1] e4f4 | 
[V:2] A8- | 
[V:3] z8 | 
[V:4] z8 | 
[V:5] A,,4D,4 | 
[V:1] e2f3ga2- | 
[V:2] A8- | 
[V:3] z8 | 
[V:4] z8 | 
[V:5] C,2D,3E,F,2- | 
[V:1] a2gfe2f2- | 
[V:2] A8- | 
[V:3] z8 | 
[V:4] z2A,4D,2 | 
[V:5] F,2E,D,C,2D,2- | 
[V:1] f2edc2e2- | 
[V:2] A8- | 
[V:3] z8 | 
[V:4] F,G,A,B,C2A,2- | 
[V:5] D,2C,B,,A,,3B,, | 
[V:1] edd4^c2 | 
[V:2] A8- | 
[V:3] z2A,4A,2 | 
[V:4] A,2G,F,E,4 | 
[V:5] C,2D,2A,,4 | 
[V:1] d8- | 
[V:2] A8- | 
[V:3] F,4D,2F,2- | 
[V:4] D,8- | 
[V:5] D,,8- | 
[V:1] d8- | 
[V:2] A8- | 
[V:3] F,2E,D,F,3G, | 
[V:4] D,8- | 
[V:5] D,,8- | 
[V:1] d8 ||  
[V:2] A8 ||  
[V:3] A,8 ||  
[V:4] D,8 ||  
[V:5] D,,8 ||  
[V:1]  [K:C] [K:clef=treble-8][M:2/1]z8 | 
[V:2]  [K:C] [K:clef=treble-8][M:2/1]z8 | 
[V:3]  [K:C] [K:clef=bass][M:2/1]A,6F,2 | 
[V:4]  [K:C] [K:clef=bass][M:2/1]z8 | 
[V:5]  [K:C] [K:clef=bass][M:2/1]z8 | 
[V:1] e6c2 | 
[V:2] z8 | 
[V:3] G,4A,4 | 
[V:4] z8 | 
[V:5] z8 | 
[V:1] d4e4 | 
[V:2] z8 | 
[V:3] D,4z2A,2- | 
[V:4] z8 | 
[V:5] z8 | 
[V:1] A4z2e2- | 
[V:2] z8 | 
[V:3] A,2G,F,G,4 | 
[V:4] z8 | 
[V:5] z8 | 
[V:1] e2dcd4 | 
[V:2] z8 | 
[V:3] A,4F,2G,2- | 
[V:4] z8 | 
[V:5] z8 | 
[V:1] e4c2d2- | 
[V:2] z8 | 
[V:3] G,2E,2F,4 | 
[V:4] z8 | 
[V:5] z8 | 
[V:1] d2B2c4 | 
[V:2] z8 | 
[V:3] D,2E,4C,2 | 
[V:4] z8 | 
[V:5] z8 | 
[V:1] A2B4G2 | 
[V:2] z8 | 
[V:3] D,4B,,2C,2 | 
[V:4] z8 | 
[V:5] z8 | 
[V:1] A2GFE2F2- | 
[V:2] z8 | 
[V:3] A,,2B,,2C,2D,C, | 
[V:4] z8 | 
[V:5] z8 | 
[V:1] F2EDE4 | 
[V:2] z8 | 
[V:3] B,,A,,D,4^C,2 | 
[V:4] z8 | 
[V:5] z8 | 
[V:1] D4z4 | 
[V:2] z8 | 
[V:3] D,4z4 | 
[V:4] z2A,3G,F,E, | 
[V:5] z4z2D,2- | 
[V:1] z8 | 
[V:2] z8 | 
[V:3] z8 | 
[V:4] D,2G,3F,E,D, | 
[V:5] D,C,B,,A,,G,,2C,2- | 
[V:1] z8 | 
[V:2] z8 | 
[V:3] z8 | 
[V:4] C,2F,4E,D, | 
[V:5] C,B,,A,,G,,F,,G,,A,,B,, | 
[V:1] z8 | 
[V:2] z8 | 
[V:3] z8 | 
[V:4] E,2F,2G,2A,2- | 
[V:5] C,2D,2B,,2C,2 | 
[V:1] z8 | 
[V:2] z8 | 
[V:3] z8 | 
[V:4] A,G,F,4E,2 | 
[V:5] F,,4G,,4 | 
[V:1] z4z2A2- | 
[V:2] z8 | 
[V:3] z2F,4F,2 | 
[V:4] F,2E,D,C,4 | 
[V:5] F,,8 | 
[V:1] A2A2A4 | 
[V:2] z8 | 
[V:3] F,8 | 
[V:4] z4z2C,2- | 
[V:5] z2F,,4F,,2 | 
[V:1] z8 | 
[V:2] z8 | 
[V:3] z8 | 
[V:4] C,2C,2C,4 | 
[V:5] F,,4z2F,,2 | 
[V:1] z8 | 
[V:2] z8 | 
[V:3] z8 | 
[V:4] z2A,,2B,,2C,2 | 
[V:5] E,,2F,,2G,,2A,,2- | 
[V:1] z8 | 
[V:2] z8 | 
[V:3] z8 | 
[V:4] A,,2D,4^C,2 | 
[V:5] A,,2G,,F,,E,,4 | 
[V:1] z4z2A2 | 
[V:2] z8 | 
[V:3] z2F,2E,2F,2 | 
[V:4] D,4z4 | 
[V:5] D,,4z4 | 
[V:1] B2c2A2d2- | 
[V:2] z8 | 
[V:3] G,2A,4G,F, | 
[V:4] z8 | 
[V:5] z8 | 
[V:1] d2c2d2f2- | 
[V:2] z8 | 
[V:3] E,4D,4- | 
[V:4] z8 | 
[V:5] z4z2D,2- | 
[V:1] f2e2d2cB | 
[V:2] z8 | 
[V:3] D,2E,2F,2G,2 | 
[V:4] z4D,4 | 
[V:5] D,2C,2B,,4 | 
[V:1] c8 ||  
[V:2] z8 ||  
[V:3] A,8 ||  
[V:4] E,8 ||  
[V:5] A,,8 ||  
[V:1]  [K:C] [K:clef=treble-8][M:2/1]c8- | 
[V:2]  [K:C] [K:clef=treble-8][M:2/1]E8 | 
[V:3]  [K:C] [K:clef=bass][M:2/1]A,8- | 
[V:4]  [K:C] [K:clef=bass][M:2/1]C,8- | 
[V:5]  [K:C] [K:clef=bass][M:2/1]A,,8- | 
[V:1] c8 | 
[V:2] E4E4 | 
[V:3] A,8 | 
[V:4] C,8 | 
[V:5] A,,8 | 
[V:1] f4d4 | 
[V:2] F6ED | 
[V:3] A,6G,F, | 
[V:4] D,8 | 
[V:5] D,,4F,,4 | 
[V:1] e4f4- | 
[V:2] C4D4 | 
[V:3] G,4F,4 | 
[V:4] G,,4A,,4 | 
[V:5] E,,4D,,4 | 
[V:1] f2e2d4- | 
[V:2] F4G4 | 
[V:3] A,4B,4 | 
[V:4] z4B,,4 | 
[V:5] D,4G,,4 | 
[V:1] d2^c2^c2B^c | 
[V:2] E8 | 
[V:3] A,8 | 
[V:4] C,4A,,4- | 
[V:5] A,,8 | 
[V:1] d8- | 
[V:2] D8- | 
[V:3] F,4G,2F,E, | 
[V:4] A,,4B,,4 | 
[V:5] D,,4G,,4 | 
[V:1] d8 | 
[V:2] D8 | 
[V:3] D,4G,4 | 
[V:4] A,,2B,,4A,,G,, | 
[V:5] F,,2G,,4F,,E,, | 
[V:1] z8 | 
[V:2] z8 | 
[V:3] F,E,D,C,B,,2A,,2- | 
[V:4] A,,4B,,2C,2- | 
[V:5] D,,4z2A,,2- | 
[V:1] z8 | 
[V:2] z8 | 
[V:3] A,,2D,4^C,2 | 
[V:4] C,2B,,A,,G,,4 | 
[V:5] A,,2G,,F,,E,,4 | 
[V:1] z4f4- | 
[V:2] A8- | 
[V:3] D,8 | 
[V:4] A,,8- | 
[V:5] D,,8- | 
[V:1] f4f4 | 
[V:2] A8 | 
[V:3] F,6E,D, | 
[V:4] A,,8 | 
[V:5] D,,8 | 
[V:1] e4a4- | 
[V:2] A8 | 
[V:3] C,8 | 
[V:4] z4A,,4- | 
[V:5] A,,8 | 
[V:1] a2g2f4- | 
[V:2] A8 | 
[V:3] z4C4- | 
[V:4] A,,4C,4- | 
[V:5] F,,8 | 
[V:1] f2e2e2de | 
[V:2] G8 | 
[V:3] C4C4 | 
[V:4] C,2D,2E,4 | 
[V:5] C,8 | 
[V:1] f8 | 
[V:2] F8 | 
[V:3] A,8 | 
[V:4] C,8 | 
[V:5] F,,8 | 
[V:1] f4e2g2- | 
[V:2] A3Bc2B2- | 
[V:3] F,4G,4 | 
[V:4] D,4C,2E,2- | 
[V:5] z8 | 
[V:1] g2fed4 | 
[V:2] B2A4^G2 | 
[V:3] z2C,2D,4 | 
[V:4] E,2D,C,B,,4 | 
[V:5] z8 | 
[V:1] c8 | 
[V:2] A8- | 
[V:3] E,4C,4- | 
[V:4] A,,B,,C,D,E,2F,2- | 
[V:5] z4A,,4- | 
[V:1] z8 | 
[V:2] A8 | 
[V:3] C,4F,4 | 
[V:4] F,2E,2D,2A,2- | 
[V:5] A,,4D,4 | 
[V:1] z8 | 
[V:2] z8 | 
[V:3] E,4D,2C,2 | 
[V:4] A,2G,2F,2G,2- | 
[V:5] C,4D,2E,2- | 
[V:1] z4e4 | 
[V:2] z8 | 
[V:3] D,2B,,2A,,4 | 
[V:4] G,F,E,D,E,4 | 
[V:5] E,D,D,4^C,2 | 
[V:1] f2a4gf | 
[V:2] A8- | 
[V:3] z4z2A,2- | 
[V:4] D,2F,4E,D, | 
[V:5] D,8 | 
[V:1] e2f4ed | 
[V:2] A8 | 
[V:3] A,G,F,E,D,4 | 
[V:4] C,2D,4C,B,, | 
[V:5] z8 | 
[V:1] c4z4 | 
[V:2] A8 | 
[V:3] E,2C3B,A,G, | 
[V:4] A,,4z4 | 
[V:5] z2A,,4D,2- | 
[V:1] z8 | 
[V:2] A8 | 
[V:3] F,2G,4^F,2 | 
[V:4] z2D,4C,2 | 
[V:5] D,2C,B,,A,,4 | 
[V:1] d8- | 
[V:2] B8 | 
[V:3] G,8- | 
[V:4] D,C,B,,A,,G,,2G,2- | 
[V:5] G,,8- | 
[V:1] d8 | 
[V:2] B8 | 
[V:3] G,8 | 
[V:4] G,2F,E,D,4 | 
[V:5] G,,8 | 
[V:1] e8 | 
[V:2] c8- | 
[V:3] G,8 | 
[V:4] C,8- | 
[V:5] C,8 | 
[V:1] f6ed | 
[V:2] c8 | 
[V:3] A,6G,F, | 
[V:4] C,8 | 
[V:5] F,,8 | 
[V:1] c4z4 | 
[V:2] c6B2 | 
[V:3] E,8- | 
[V:4] z4z2B,,2 | 
[V:5] A,,6G,,2 | 
[V:1] z2e3dcB | 
[V:2] A4G4 | 
[V:3] E,4E,4 | 
[V:4] C,2B,,A,,B,,4 | 
[V:5] A,,4E,,4 | 
[V:1] c4A2B2- | 
[V:2] A4F2G2- | 
[V:3] C,2C4B,2 | 
[V:4] A,,4z4 | 
[V:5] z2A,,4G,,2 | 
[V:1] BAd4^c2 | 
[V:2] GFEDE4 | 
[V:3] G,2A,2B,2A,2- | 
[V:4] z4z2A,,2- | 
[V:5] E,,2F,,2G,,2A,,2 | 
[V:1] d8- | 
[V:2] D8- | 
[V:3] A,2G,2_B,2A,G, | 
[V:4] A,,2B,,2G,,4 | 
[V:5] F,,2G,,4F,,E,, | 
[V:1] d8- | 
[V:2] D8- | 
[V:3] F,4z2F,2- | 
[V:4] A,,8- | 
[V:5] D,,8- | 
[V:1] d8- | 
[V:2] D8- | 
[V:3] F,2E,D,F,3G, | 
[V:4] A,,8- | 
[V:5] D,,8- | 
[V:1] d8 ||  
[V:2] D8 ||  
[V:3] A,8 ||  
[V:4] A,,8 ||  
[V:5] D,,8 ||  
[V:1]  [K:C] [K:clef=treble-8][M:2/1]z8 | 
[V:2]  [K:C] [K:clef=treble-8][M:2/1]z8 | 
[V:3]  [K:C] [K:clef=bass][M:2/1]z8 | 
[V:4]  [K:C] [K:clef=bass][M:2/1]z8 | 
[V:5]  [K:C] [K:clef=bass][M:2/1]A,,8 | 
[V:1] z8 | 
[V:2] z8 | 
[V:3] z8 | 
[V:4] z8 | 
[V:5] A,,4A,,4 | 
[V:1] A8 | 
[V:2] z8 | 
[V:3] z8 | 
[V:4] z8 | 
[V:5] D,6C,B,, | 
[V:1] A4A4 | 
[V:2] z8 | 
[V:3] z8 | 
[V:4] z8 | 
[V:5] C,4D,4 | 
[V:1] d6cB | 
[V:2] z8 | 
[V:3] z8 | 
[V:4] z8 | 
[V:5] D,2F,4E,D, | 
[V:1] c4d4- | 
[V:2] z8 | 
[V:3] z8 | 
[V:4] z8 | 
[V:5] E,4D,4- | 
[V:1] d2cBA3G | 
[V:2] z8 | 
[V:3] z8 | 
[V:4] z8 | 
[V:5] D,4C,4 | 
[V:1] _B2A4GF | 
[V:2] z8 | 
[V:3] z8 | 
[V:4] z8 | 
[V:5] D,4A,,4 | 
[V:1] E3FG2E2- | 
[V:2] z8 | 
[V:3] z8 | 
[V:4] z8 | 
[V:5] C,4B,,2C,2- | 
[V:1] E2DCB,2A,2- | 
[V:2] z8 | 
[V:3] z8 | 
[V:4] z8 | 
[V:5] C,2B,,A,,G,,2A,,2 | 
[V:1] A,B,CDE2F2- | 
[V:2] z8 | 
[V:3] z8 | 
[V:4] z8 | 
[V:5] F,,4E,,2D,,2 | 
[V:1] FED4^C2 | 
[V:2] z8 | 
[V:3] z8 | 
[V:4] z8 | 
[V:5] F,,2G,,2E,,4 | 
[V:1] D4z4 | 
[V:2] z8 | 
[V:3] A,8- | 
[V:4] D,8 | 
[V:5] D,,2D,4C,B,, | 
[V:1] c8- | 
[V:2] z8 | 
[V:3] A,8 | 
[V:4] E,8- | 
[V:5] A,,6B,,2 | 
[V:1] c4A4 | 
[V:2] z8 | 
[V:3] A,8 | 
[V:4] E,4F,4 | 
[V:5] C,4D,4 | 
[V:1] d6cB | 
[V:2] z8 | 
[V:3] G,8 | 
[V:4] D,8 | 
[V:5] B,,8 | 
[V:1] c2d4^c2 | 
[V:2] z8 | 
[V:3] A,8 | 
[V:4] E,8 | 
[V:5] A,,8 | 
[V:1] d4z4 | 
[V:2] z8 | 
[V:3] z4A,4- | 
[V:4] D,8 | 
[V:5] D,,8 | 
[V:1] e8 | 
[V:2] z8 | 
[V:3] A,2G,F,E,2A,2- | 
[V:4] z8 | 
[V:5] z8 | 
[V:1] e4e4 | 
[V:2] z8 | 
[V:3] A,2G,F,G,2A,2 | 
[V:4] z8 | 
[V:5] z8 | 
[V:1] f4z2f2- | 
[V:2] z8 | 
[V:3] D,2D4CB, | 
[V:4] z4z2F,2- | 
[V:5] D,8 | 
[V:1] fec2d4 | 
[V:2] z8 | 
[V:3] C2A,4^G,2 | 
[V:4] F,2E,4D,2 | 
[V:5] A,,4B,,4 | 
[V:1] c4z4 | 
[V:2] z8 | 
[V:3] A,4z2E,2 | 
[V:4] E,8 | 
[V:5] C,8 | 
[V:1] A4A2G2- | 
[V:2] z8 | 
[V:3] F,2E,D,F,2E,2 | 
[V:4] z8 | 
[V:5] z8 | 
[V:1] G2F2G2E2 | 
[V:2] z8 | 
[V:3] C,2D,2B,,2C,2 | 
[V:4] z8 | 
[V:5] z8 | 
[V:1] F2EDF2E2 | 
[V:2] z8 | 
[V:3] D,2C,B,,D,2C,2 | 
[V:4] z8 | 
[V:5] z8 | 
[V:1] C2A3GF2- | 
[V:2] z8 | 
[V:3] A,,3B,,C,2D,2- | 
[V:4] z8 | 
[V:5] z8 | 
[V:1] F2EDE4 | 
[V:2] z8 | 
[V:3] D,2C,B,,^C,4 | 
[V:4] z8 | 
[V:5] z8 | 
[V:1] D4z4 | 
[V:2] z8 | 
[V:3] D,2F,4E,D, | 
[V:4] z4A,4- | 
[V:5] D,,8 | 
[V:1] E4D2C2 | 
[V:2] z8 | 
[V:3] C,4D,2E,2- | 
[V:4] A,4z2A,2- | 
[V:5] A,,4B,,2A,,2 | 
[V:1] D4E4 | 
[V:2] z8 | 
[V:3] E,D,D,4^C,2 | 
[V:4] A,2G,2A,4 | 
[V:5] B,,4A,,4 | 
[V:1] D4E2F2- | 
[V:2] z8 | 
[V:3] D,4A,,4 | 
[V:4] F,4E,2A,2- | 
[V:5] D,,4z4 | 
[V:1] FEDCD4 | 
[V:2] z8 | 
[V:3] A,8- | 
[V:4] A,G,F,E,F,2E,D, | 
[V:5] z8 | 
[V:1] E4z4 | 
[V:2] z8 | 
[V:3] A,8 | 
[V:4] C,3D,E,2F,2- | 
[V:5] A,,8- | 
[V:1] A8 | 
[V:2] z8 | 
[V:3] z8 | 
[V:4] F,2E,D,E,2F,2- | 
[V:5] A,,8 | 
[V:1] c4c4 | 
[V:2] z8 | 
[V:3] A,8- | 
[V:4] F,2E,D,E,4 | 
[V:5] A,,8 | 
[V:1] d8 | 
[V:2] z8 | 
[V:3] A,8 | 
[V:4] D,8- | 
[V:5] D,,8- | 
[V:1] z4d4 | 
[V:2] z8 | 
[V:3] F,6E,D, | 
[V:4] D,8 | 
[V:5] D,,8 | 
[V:1] c2A4B2 | 
[V:2] z8 | 
[V:3] E,2F,4G,2 | 
[V:4] z2D,4G,,2 | 
[V:5] z8 | 
[V:1] c2d4^c2 | 
[V:2] z8 | 
[V:3] F,2E,D,E,4 | 
[V:4] A,,2B,,2A,,4 | 
[V:5] z8 | 
[V:1] d4z4 | 
[V:2] z8 | 
[V:3] D,4z4 | 
[V:4] z2A,4G,F, | 
[V:5] z4D,4 | 
[V:1] z8 | 
[V:2] z8 | 
[V:3] z8 | 
[V:4] E,2F,2G,F,E,D, | 
[V:5] C,2A,,2B,,2C,2- | 
[V:1] z4G4 | 
[V:2] z8 | 
[V:3] z8 | 
[V:4] C,2F,4E,2 | 
[V:5] C,2B,,A,,G,,4 | 
[V:1] A2c4d2 | 
[V:2] z8 | 
[V:3] z2A,4F,2 | 
[V:4] F,8 | 
[V:5] F,,8 | 
[V:1] e2f4ed | 
[V:2] z8 | 
[V:3] G,2A,4G,F, | 
[V:4] z4D,4 | 
[V:5] z8 | 
[V:1] e4f4 | 
[V:2] z8 | 
[V:3] G,4F,4 | 
[V:4] C,4D,2F,2- | 
[V:5] z4z2F,,2- | 
[V:1] z8 | 
[V:2] z8 | 
[V:3] z8 | 
[V:4] F,2F,2E,2D,2 | 
[V:5] F,,2D,,2E,,2F,,2- | 
[V:1] z8 | 
[V:2] z8 | 
[V:3] z8 | 
[V:4] C,2D,3^C,C,B,, | 
[V:5] F,,2E,,D,,E,,4 | 
[V:1] f8 | 
[V:2] z8 | 
[V:3] A,8 | 
[V:4] D,8 | 
[V:5] D,,8 | 
[V:1] e8 | 
[V:2] z8 | 
[V:3] G,8 | 
[V:4] E,8- | 
[V:5] z8 | 
[V:1] c8 | 
[V:2] z8 | 
[V:3] A,8- | 
[V:4] E,8 | 
[V:5] A,,8 | 
[V:1] d8 | 
[V:2] z8 | 
[V:3] A,4B,4 | 
[V:4] F,8 | 
[V:5] D,8 | 
[V:1] e8 | 
[V:2] z8 | 
[V:3] C8 | 
[V:4] G,6A,2 | 
[V:5] C,8 | 
[V:1] f6ed | 
[V:2] z8 | 
[V:3] A,6B,2 | 
[V:4] F,2A,4G,2 | 
[V:5] F,,6G,,2 | 
[V:1] c4d4 | 
[V:2] z8 | 
[V:3] C2A,4^G,2 | 
[V:4] E,2F,2D,4 | 
[V:5] A,,4B,,4 | 
[V:1] c2BAc2B2- | 
[V:2] z8 | 
[V:3] A,4z4 | 
[V:4] E,4F,2G,2 | 
[V:5] A,,6G,,2- | 
[V:1] BAd4^c2 | 
[V:2] z8 | 
[V:3] z2A,4A,2 | 
[V:4] D,2F,2E,4 | 
[V:5] G,,F,,D,,2A,,4 | 
[V:1] d8- | 
[V:2] z8 | 
[V:3] F,3G,A,2_B,2 | 
[V:4] D,8- | 
[V:5] F,,8- | 
[V:1] d8 ||  
[V:2] z8 ||  
[V:3] A,8 ||  
[V:4] D,8 ||  
[V:5] F,,8 ||  



